src/static/tim.svg

<svg width="119" height="32" viewBox="0 0 119 32" fill="none" xmlns="http://www.w3.org/2000/svg">
<path fill-rule="evenodd" clip-rule="evenodd" d="M69.1285 2.66366C69.1285 0.448683 69.0029 0.36499 68.3759 0.36499H47.013C46.386 0.36499 46.2604 0.36499 46.2608 2.66407V4.71207C46.2608 6.92704 46.4278 7.09443 47.013 7.09443H54.1201V31.044C54.1201 31.5871 54.5383 31.7127 56.963 31.7127H58.217C60.6003 31.7127 61.2692 31.5871 61.2692 31.044V7.09443H68.3759C68.9611 7.09443 69.1285 6.84335 69.1285 4.71166V2.66366ZM78.1585 0.36499C80.4577 0.36499 81.1266 0.573811 81.1266 1.03371L81.127 31.044C81.127 31.5871 80.4581 31.7127 78.1585 31.7127H76.8208C74.3961 31.7127 73.9779 31.5871 73.9779 31.044V1.03371C73.9779 0.573811 74.3961 0.36499 76.8208 0.36499H78.1585ZM113.735 0.36499H115.826C118.125 0.36499 118.794 0.573811 118.794 1.03371L118.794 31.044C118.794 31.5871 118.125 31.7127 115.826 31.7127H114.572C112.105 31.7127 111.645 31.5871 111.645 31.044V13.2384H111.478C111.478 13.2384 111.185 14.2415 110.767 15.2446L106.419 25.9863C106.211 26.5299 106.043 26.6969 103.786 26.6969H102.364C100.149 26.6969 99.8978 26.4881 99.6885 25.9863L94.9228 14.8265C94.5883 14.0741 94.3795 13.2384 94.3795 13.2384H94.212V31.044C94.212 31.5871 93.5432 31.7127 91.2022 31.7127H89.9063C87.523 31.7127 87.0634 31.5871 87.0634 31.044L87.063 1.03371C87.063 0.573811 87.523 0.36499 89.8226 0.36499H92.1636C94.4209 0.36499 95.4661 0.531965 95.7172 1.1174L99.8559 10.8979C101.779 15.4534 102.699 17.9195 103.2 19.7586C103.744 17.9195 105.165 14.367 106.545 11.0649L110.684 1.1174C110.893 0.657503 111.06 0.36499 113.735 0.36499ZM2.16097 7.07304H36.0768C36.5778 7.07304 37.0308 6.86873 37.3579 6.53888C37.6804 6.21314 37.8798 5.76514 37.8798 5.27037V2.17212C37.8798 1.67776 37.6808 1.23017 37.3583 0.904423C37.0317 0.574167 36.5782 0.369449 36.0768 0.369449L2.16097 0.369859C1.66199 0.369859 1.21061 0.572115 0.883972 0.8995C0.558979 1.22565 0.35791 1.67529 0.35791 2.17253V5.27078C0.35791 5.76596 0.557748 6.21478 0.8811 6.54053C1.20773 6.86955 1.66034 7.07304 2.16097 7.07304ZM2.16097 12.687H15.3667V19.3906H2.16097C1.66034 19.3906 1.20773 19.1867 0.8811 18.8577C0.557748 18.5319 0.35791 18.0831 0.35791 17.5879V14.4897C0.35791 13.9928 0.558979 13.5428 0.883972 13.217C1.21061 12.8897 1.66199 12.687 2.16097 12.687ZM36.0768 12.687C36.5782 12.687 37.0317 12.8913 37.3583 13.2216C37.6808 13.5473 37.8798 13.9953 37.8798 14.4897V17.5879C37.8798 18.0823 37.6804 18.5307 37.3579 18.8564C37.0308 19.1863 36.5778 19.3902 36.0768 19.3902L22.8711 19.3906V12.687H36.0768ZM36.0768 25.0041C36.5782 25.0041 37.0317 25.2088 37.3583 25.5391C37.6808 25.8648 37.8798 26.3124 37.8798 26.8068V29.905C37.8798 30.3998 37.6804 30.8478 37.3579 31.1736C37.0312 31.5034 36.5778 31.7077 36.0768 31.7077H22.8711V25.0045L36.0768 25.0041ZM2.16097 25.0045H15.3667V31.7077H2.16097C1.66034 31.7077 1.20773 31.5042 0.8811 31.1752C0.557748 30.8494 0.35791 30.4006 0.35791 29.9054V26.8072C0.35791 26.3104 0.558979 25.8603 0.883972 25.5342C1.21061 25.2068 1.66199 25.0045 2.16097 25.0045Z" fill="black"/>
</svg>

<svg xmlns="http://www.w3.org/2000/svg" viewBox="0 0 119 32">
  <path fill-rule="evenodd" d="M69.129 2.664c0-2.215-.126-2.299-.753-2.299H47.013c-.627 0-.753 0-.752 2.3v2.047c0 2.215.167 2.382.752 2.382h7.107v23.95c0 .543.418.669 2.843.669h1.254c2.383 0 3.052-.126 3.052-.669V7.094h7.107c.585 0 .752-.25.752-2.382V2.664zm9.03-2.299c2.299 0 2.968.209 2.968.669v30.01c0 .543-.669.669-2.968.669H76.82c-2.425 0-2.843-.126-2.843-.669V1.034c0-.46.418-.669 2.843-.669h1.338zm35.576 0h2.091c2.299 0 2.968.209 2.968.669v30.01c0 .543-.669.669-2.968.669h-1.254c-2.467 0-2.927-.126-2.927-.669V13.238h-.167s-.293 1.004-.711 2.007l-4.348 10.741c-.208.544-.376.71-2.633.71h-1.422c-2.215 0-2.466-.208-2.675-.71l-4.766-11.16c-.335-.752-.544-1.588-.544-1.588h-.167v17.806c0 .543-.669.669-3.01.669h-1.296c-2.383 0-2.843-.126-2.843-.669V1.034c0-.46.46-.669 2.76-.669h2.34c2.258 0 3.303.167 3.554.752l4.139 9.78c1.923 4.556 2.843 7.022 3.344 8.862.544-1.84 1.965-5.392 3.345-8.694l4.139-9.948c.209-.46.376-.752 3.051-.752zM2.161 7.073h33.916c.5 0 .954-.204 1.28-.534.323-.326.523-.774.523-1.269V2.172c0-.494-.2-.942-.522-1.268A1.797 1.797 0 0036.077.37H2.16c-.499 0-.95.203-1.277.53a1.797 1.797 0 00-.526 1.274V5.27c0 .495.2.944.523 1.27.327.329.78.532 1.28.532zm0 5.614h13.206v6.704H2.16c-.5 0-.953-.204-1.28-.533a1.797 1.797 0 01-.523-1.27V14.49c0-.497.201-.947.526-1.273.327-.327.778-.53 1.277-.53zm33.916 0c.501 0 .955.204 1.281.535.323.325.522.773.522 1.268v3.098c0 .494-.2.943-.522 1.268-.327.33-.78.534-1.281.534H22.87v-6.703h13.206zm0 12.317c.501 0 .955.205 1.281.535.323.326.522.773.522 1.268v3.098c0 .495-.2.943-.522 1.269-.327.33-.78.534-1.281.534H22.87v-6.703h13.206zm-33.916 0h13.206v6.704H2.16c-.5 0-.953-.204-1.28-.533a1.797 1.797 0 01-.523-1.27v-3.098a1.798 1.798 0 011.803-1.802z" clip-rule="evenodd"/>
</svg>
